X:1
T:James Gibb editions
T:Psalm 77 (Becker) - Schütz
%%score [ ( 1 2 ) ( 3 4 ) ]
L:1/8
Q:1/4=100
M:2/2
K:F
V:1 treble nm="Soprano Alto"
V:2 treble 
V:3 bass nm="Tenor Bass"
V:4 bass 
V:1
"^Cornelius Becker\n(1561-1604)""^Psalm 77, SWV 174""^Heinrich Schütz\n(1585-1672)" F4 G2 A2 | %1
w: ~Ich ruf zu|
w: ich such den|
w: |
 B4 G4 | A2 B2 c4 | d4 _e2 c2 | B4 d4 | c2 B2 A2 G2 |[M:2/2] B4 A4 :| A4 B2 c2 | F4 D4 | %9
w: Gott mit|mei- ner Stimm|und schrei zu|ihm, so|hö- ret er mein|Fle- hen,|||
w: Her- ren|in der Not,|mein Händ zu|Gott des|Nach- tes ich auf-||ich laß nicht|ab, bis|
w: |||||he- be.|||
 E2 ^F2 G4 | B4 c2 d2 | G4 G4 | A2 =B2 c4 | d4 _e2 d2 | (c3 B A2) B2 | G8 | F8 |] %17
w: |||Angst und Quäl|vor Herz- leid|müßt * * ver-|ge-|hen.|
w: ich ihn hab,|sonst mei- ne|Seel in||||||
w: ||||||||
V:2
 C4 E2 F2 | F4 E4 | C2 F2 E4 | F4 G2 F2 | F4 F4 | F2 F2 F2 D2 |[M:2/2] G4 F4 :| C4 _E2 E2 | %8
w: ||||||||
 D4 A,4 | C2 C2 =B,4 | D4 F2 F2 | E4 E4 | D2 D2 E4 | F4 G2 F2 | F4 F2 (F2- | F2 ED E4) | F8 |] %17
w: ||||||müßt ver- ge\-||hen.|
V:3
 A,4 C2 C2 | D4 C4 | A,2 D2 G,4 | B,4 B,2 A,2 | B,4 B,4 | C2 D2 C2 B,2 |[M:2/2] _E4 C4 :| %7
 F,4 G,2 A,2 | B,4 F,4 | G,2 A,2 D,4 | G,4 A,2 =B,2 | C4 C4 | %12
"^2. Wenn ich betrübt und traurig bin, meins Herzens Sinn zu meinem Gott ich wende,\nwenn meiner Seel ist angst und weh, zu ihm ich steh und klag ihm mein Elende,\ndie Nacht ich wach vor Ungemach ich red kaum mehr vor Ohnmacht schwer,\nmeins Jammers ist kein Ende.\n\n3. Ich denk in solchem Herzeleid der alten Zeit, wie's g'wesen ist vor Jahren,\nerinner mich auch oft und viel meins Saitenspiel dabei ich fröhlich ware,\njetzt ich mich plag bei Nacht und Tag mit G'danken schwer je läng'r je mehr,\nmein Geist wollts gern erfahren.\n\n4. Wird denn der Herr nun ewiglich verstoßen mich und kein Gnad mir beweisen,\nist denn sein Güt ganz abgewend't und hat kein End, was er zuvor verheißen?\nHat er denn he ut Barmherzigkeit an mir vergessen, sein Herz verschloss'n,\nwill mich sein Zorn abreißen?\n\n5. Doch als ich ihm recht dachte nach, mein Herze sprach: Ich muß das alles leiden,\ndes Allerhöchsten rechte Hand alls ändern kann und kehren bald zur Freude.\nWenn ich dann merk auf Gottes Werk, hätt ich nur bloß von Wundern groß\nein eigen Buch zu schreiben.\n\n6. Herr, Gott, dein Wege heilig sind nirgend man find't ein Gott, der deinesgleichen,\nan Weisheit, Macht, an Kraft und Stärk all deine Werk sind lauter Wunderzeichen,\ndu hast dein Macht mit hoher Pracht an Völkern viel erzeigt ohn Ziel,\nniemand, Herr, kanns erreichen." A,2 G,2 G,4 | %13
 B,4 B,2 B,2 | (A,3 B, C2) D2 | C8 | C8 |] %17
V:4
 F,4 C,2 F,2 | B,,4 C,4 | F,2 D,2 C,4 | B,,4 _E,2 F,2 | B,,4 B,,4 | A,,2 B,,2 F,2 G,2 | %6
[M:2/2] _E,4 F,4 :| F,4 _E,2 C,2 | B,,4 D,4 | C,2 A,,2 G,,4 | G,4 F,2 D,2 | C,4 C,4 | F,2 G,2 C,4 | %13
 B,,4 _E,2 B,,2 | F,6 B,,2 | C,8 | F,8 |] %17

